X: 37203
T: Sir Walter Scott
R: jig
M: 6/8
K: Fmajor
CDF AFA|fef fed|cBc cAF|FEFD2B,|
CDF AFA|fef fed|cAF AB^c|1 d3d2F:|2 d3d2e||
|:fef agf|d2fc2f|AGA fga|ge^cd2f|
fef fed|cAF FGA|BAG Afe|fddd3:|
fef agf|d2fc2d|cfd AGF|AFDD2B,|
CDF AFA|fef fed|cAF AB^c|d3d3|

